X:169
T:Dunn Carline, The
T:'Chailleach Odhar
R:Strathspey
B:The Athole Collection
M:C|
L:1/8
K:D
d|A>DF>D A<D D>B|A>DF>D F/G/A d2|A>DF>A D<AF<A|G<B A>F E/E/E B2:|
|:A<d d>f e>dc>A|A<d d>f ef/g/ f>e|1 A<d d>f e>dc>A| B<dA<d E/E/E B2:|2
f<a e>f d>fB>d|A>dF>d E/E/E B2||

